Icons/stericson_busybox.svg

<svg viewBox="0 0 48 48" xmlns:xlink="http://www.w3.org/1999/xlink">
 <defs>
  <linearGradient id="0">
   <stop stop-opacity="0"/>
   <stop offset="1"/>
  </linearGradient>
  <linearGradient xlink:href="#0" id="1" gradientUnits="userSpaceOnUse" gradientTransform="translate(4e-7,-48)" y1="47" x2="0" y2="1"/>
  <clipPath id="2">
   <g transform="translate(0,-1004.3622)">
    <rect rx="4" y="1005.36" x="1" height="46" width="46" fill="#1890d0"/>
   </g>
  </clipPath>
  <clipPath id="3">
   <g transform="translate(0,-1004.3622)">
    <rect rx="4" y="1005.36" x="1" height="46" width="46" fill="#1890d0"/>
   </g>
  </clipPath>
 </defs>
 <g>
  <g transform="translate(0,-1004.3622)">
   <path d="m 5,1006.3622 c -2.216,0 -4,1.784 -4,4 l 0,37.25 c 0,2.216 1.784,4 4,4 l 38,0 c 2.216,0 4,-1.784 4,-4 l 0,-37.25 c 0,-2.216 -1.784,-4 -4,-4 l -38,0 z m -4,41.5 0,0.5 c 0,2.216 1.784,4 4,4 l 38,0 c 2.216,0 4,-1.784 4,-4 l 0,-0.5 c 0,2.216 -1.784,4 -4,4 l -38,0 c -2.216,0 -4,-1.784 -4,-4 z" opacity="0.02"/>
   <path d="m 1,1047.6122 0,0.25 c 0,2.216 1.784,4 4,4 l 38,0 c 2.216,0 4,-1.784 4,-4 l 0,-0.25 c 0,2.216 -1.784,4 -4,4 l -38,0 c -2.216,0 -4,-1.784 -4,-4 z" opacity="0.05"/>
   <rect width="46" height="46" x="1" y="1005.61" rx="4" opacity="0.1"/>
  </g>
 </g>
 <g>
  <g transform="translate(0,-1004.3622)">
   <rect rx="4" y="1005.36" x="1" height="46" width="46" fill="#b87d51"/>
  </g>
 </g>
 <g>
  <rect transform="scale(1,-1)" width="46" height="46" x="1" y="-46.998" rx="4" opacity="0.1" fill="url(#1)"/>
 </g>
 <g>
  <g clip-path="url(#2)">
   <g opacity="0.1">
    <g>
     <path d="M 11.964844 20.003906 C 11.394531 20.03125 11 20.171875 11 20.820312 L 11 34.445312 C 11 35.308594 11.699219 36 12.574219 36 L 35.398438 36 C 36.277344 36 37 35.308594 37 34.445312 L 37 20.820312 C 37 19.957031 36.277344 20.003906 35.398438 20.003906 L 12.574219 20.003906 C 12.355469 20.003906 12.152344 19.992188 11.964844 20.003906 Z M 11.964844 20.003906 "/>
     <path d="M 15 13.402344 L 11 18 L 23 18 L 23 11 L 17.492188 11 C 16.679688 11 15 13.402344 15 13.402344 Z M 25 11 L 25 18 L 37 18 L 33 13.402344 C 33 13.402344 31.304688 11 30.492188 11 Z M 25 11 "/>
     <path d="M 27.0625 26.027344 C 27.605469 26.203125 27.128906 27.011719 27.90625 27.40625 C 28.796875 27.859375 29.238281 26.71875 29.773438 27.53125 C 30.308594 28.347656 29.035156 28.21875 29.074219 29.179688 C 29.109375 30.136719 30.367188 29.933594 29.894531 30.78125 C 29.421875 31.628906 28.898438 30.515625 28.042969 31.023438 C 27.191406 31.53125 28.007812 32.46875 27 32.5 C 25.996094 32.53125 26.742188 31.546875 25.851562 31.09375 C 24.960938 30.640625 24.519531 31.785156 23.984375 30.96875 C 23.453125 30.152344 24.722656 30.28125 24.6875 29.320312 C 24.652344 28.363281 23.394531 28.566406 23.867188 27.71875 C 24.339844 26.871094 24.863281 27.984375 25.714844 27.476562 C 26.570312 26.96875 25.753906 26.03125 26.757812 26 C 26.886719 25.996094 26.984375 26.003906 27.0625 26.027344 Z M 27.054688 28.472656 C 26.605469 28.378906 26.164062 28.652344 26.066406 29.085938 C 25.972656 29.515625 26.257812 29.9375 26.707031 30.03125 C 27.15625 30.121094 27.597656 29.847656 27.691406 29.414062 C 27.789062 28.984375 27.5 28.5625 27.054688 28.472656 Z M 27.054688 28.472656 "/>
     <path d="M 22.742188 22.027344 C 23.285156 22.203125 22.808594 23.011719 23.589844 23.40625 C 24.476562 23.859375 24.917969 22.71875 25.453125 23.53125 C 25.988281 24.347656 24.714844 24.21875 24.753906 25.179688 C 24.789062 26.136719 26.046875 25.933594 25.574219 26.78125 C 25.101562 27.628906 24.578125 26.515625 23.722656 27.023438 C 22.871094 27.53125 23.6875 28.46875 22.679688 28.5 C 21.675781 28.53125 22.421875 27.546875 21.53125 27.09375 C 20.644531 26.640625 20.199219 27.785156 19.667969 26.96875 C 19.132812 26.152344 20.402344 26.28125 20.367188 25.320312 C 20.332031 24.363281 19.074219 24.566406 19.546875 23.71875 C 20.019531 22.871094 20.542969 23.984375 21.394531 23.476562 C 22.25 22.96875 21.433594 22.03125 22.441406 22 C 22.566406 21.996094 22.664062 22.003906 22.742188 22.027344 Z M 22.734375 24.472656 C 22.285156 24.378906 21.84375 24.652344 21.746094 25.085938 C 21.652344 25.515625 21.9375 25.9375 22.386719 26.03125 C 22.835938 26.121094 23.277344 25.847656 23.371094 25.414062 C 23.46875 24.984375 23.179688 24.5625 22.734375 24.472656 Z M 22.734375 24.472656 "/>
     <path d="M 21.304688 27.527344 C 21.847656 27.703125 21.371094 28.511719 22.148438 28.90625 C 23.039062 29.359375 23.480469 28.21875 24.015625 29.03125 C 24.546875 29.847656 23.277344 29.71875 23.3125 30.679688 C 23.347656 31.636719 24.605469 31.433594 24.132812 32.28125 C 23.660156 33.128906 23.136719 32.015625 22.285156 32.523438 C 21.429688 33.03125 22.246094 33.96875 21.242188 34 C 20.234375 34.03125 20.980469 33.046875 20.09375 32.59375 C 19.203125 32.140625 18.761719 33.285156 18.226562 32.46875 C 17.691406 31.652344 18.964844 31.78125 18.925781 30.820312 C 18.890625 29.863281 17.632812 30.066406 18.105469 29.21875 C 18.578125 28.371094 19.101562 29.484375 19.957031 28.976562 C 20.808594 28.46875 19.992188 27.53125 21 27.5 C 21.125 27.496094 21.226562 27.503906 21.304688 27.527344 Z M 21.292969 29.972656 C 20.84375 29.878906 20.402344 30.152344 20.308594 30.585938 C 20.210938 31.015625 20.5 31.4375 20.945312 31.53125 C 21.394531 31.621094 21.835938 31.347656 21.933594 30.914062 C 22.027344 30.484375 21.742188 30.0625 21.292969 29.972656 Z M 21.292969 29.972656 "/>
    </g>
   </g>
  </g>
 </g>
 <g>
  <g clip-path="url(#3)">
   <g transform="translate(0,-1)">
    <g>
     <path d="M 11.964844 20.003906 C 11.394531 20.03125 11 20.171875 11 20.820312 L 11 34.445312 C 11 35.308594 11.699219 36 12.574219 36 L 35.398438 36 C 36.277344 36 37 35.308594 37 34.445312 L 37 20.820312 C 37 19.957031 36.277344 20.003906 35.398438 20.003906 L 12.574219 20.003906 C 12.355469 20.003906 12.152344 19.992188 11.964844 20.003906 Z M 11.964844 20.003906 " fill="#f9f9f9"/>
     <path d="M 15 13.402344 L 11 18 L 23 18 L 23 11 L 17.492188 11 C 16.679688 11 15 13.402344 15 13.402344 Z M 25 11 L 25 18 L 37 18 L 33 13.402344 C 33 13.402344 31.304688 11 30.492188 11 Z M 25 11 " fill="#f9f9f9"/>
     <path d="M 27.0625 26.027344 C 27.605469 26.203125 27.128906 27.011719 27.90625 27.40625 C 28.796875 27.859375 29.238281 26.71875 29.773438 27.53125 C 30.308594 28.347656 29.035156 28.21875 29.074219 29.179688 C 29.109375 30.136719 30.367188 29.933594 29.894531 30.78125 C 29.421875 31.628906 28.898438 30.515625 28.042969 31.023438 C 27.191406 31.53125 28.007812 32.46875 27 32.5 C 25.996094 32.53125 26.742188 31.546875 25.851562 31.09375 C 24.960938 30.640625 24.519531 31.785156 23.984375 30.96875 C 23.453125 30.152344 24.722656 30.28125 24.6875 29.320312 C 24.652344 28.363281 23.394531 28.566406 23.867188 27.71875 C 24.339844 26.871094 24.863281 27.984375 25.714844 27.476562 C 26.570312 26.96875 25.753906 26.03125 26.757812 26 C 26.886719 25.996094 26.984375 26.003906 27.0625 26.027344 Z M 27.054688 28.472656 C 26.605469 28.378906 26.164062 28.652344 26.066406 29.085938 C 25.972656 29.515625 26.257812 29.9375 26.707031 30.03125 C 27.15625 30.121094 27.597656 29.847656 27.691406 29.414062 C 27.789062 28.984375 27.5 28.5625 27.054688 28.472656 Z M 27.054688 28.472656 " fill="#e3b392"/>
     <path d="M 22.742188 22.027344 C 23.285156 22.203125 22.808594 23.011719 23.589844 23.40625 C 24.476562 23.859375 24.917969 22.71875 25.453125 23.53125 C 25.988281 24.347656 24.714844 24.21875 24.753906 25.179688 C 24.789062 26.136719 26.046875 25.933594 25.574219 26.78125 C 25.101562 27.628906 24.578125 26.515625 23.722656 27.023438 C 22.871094 27.53125 23.6875 28.46875 22.679688 28.5 C 21.675781 28.53125 22.421875 27.546875 21.53125 27.09375 C 20.644531 26.640625 20.199219 27.785156 19.667969 26.96875 C 19.132812 26.152344 20.402344 26.28125 20.367188 25.320312 C 20.332031 24.363281 19.074219 24.566406 19.546875 23.71875 C 20.019531 22.871094 20.542969 23.984375 21.394531 23.476562 C 22.25 22.96875 21.433594 22.03125 22.441406 22 C 22.566406 21.996094 22.664062 22.003906 22.742188 22.027344 Z M 22.734375 24.472656 C 22.285156 24.378906 21.84375 24.652344 21.746094 25.085938 C 21.652344 25.515625 21.9375 25.9375 22.386719 26.03125 C 22.835938 26.121094 23.277344 25.847656 23.371094 25.414062 C 23.46875 24.984375 23.179688 24.5625 22.734375 24.472656 Z M 22.734375 24.472656 " fill="#e3b392"/>
     <path d="M 21.304688 27.527344 C 21.847656 27.703125 21.371094 28.511719 22.148438 28.90625 C 23.039062 29.359375 23.480469 28.21875 24.015625 29.03125 C 24.546875 29.847656 23.277344 29.71875 23.3125 30.679688 C 23.347656 31.636719 24.605469 31.433594 24.132812 32.28125 C 23.660156 33.128906 23.136719 32.015625 22.285156 32.523438 C 21.429688 33.03125 22.246094 33.96875 21.242188 34 C 20.234375 34.03125 20.980469 33.046875 20.09375 32.59375 C 19.203125 32.140625 18.761719 33.285156 18.226562 32.46875 C 17.691406 31.652344 18.964844 31.78125 18.925781 30.820312 C 18.890625 29.863281 17.632812 30.066406 18.105469 29.21875 C 18.578125 28.371094 19.101562 29.484375 19.957031 28.976562 C 20.808594 28.46875 19.992188 27.53125 21 27.5 C 21.125 27.496094 21.226562 27.503906 21.304688 27.527344 Z M 21.292969 29.972656 C 20.84375 29.878906 20.402344 30.152344 20.308594 30.585938 C 20.210938 31.015625 20.5 31.4375 20.945312 31.53125 C 21.394531 31.621094 21.835938 31.347656 21.933594 30.914062 C 22.027344 30.484375 21.742188 30.0625 21.292969 29.972656 Z M 21.292969 29.972656 " fill="#e3b392"/>
    </g>
   </g>
  </g>
 </g>
 <g>
  <g transform="translate(0,-1004.3622)">
   <path d="m 1,1043.3622 0,4 c 0,2.216 1.784,4 4,4 l 38,0 c 2.216,0 4,-1.784 4,-4 l 0,-4 c 0,2.216 -1.784,4 -4,4 l -38,0 c -2.216,0 -4,-1.784 -4,-4 z" opacity="0.1"/>
  </g>
 </g>
</svg>

<svg viewBox="0 0 48 48"><defs><linearGradient id="linearGradient3764" x1="1" x2="47" gradientUnits="userSpaceOnUse" gradientTransform="translate(-48.000001,0.00221467)"><stop stop-color="#ad7247" stop-opacity="1"/><stop offset="1" stop-color="#b87d51" stop-opacity="1"/></linearGradient><clipPath id="clipPath-155477723"><g transform="translate(0,-1004.3622)"><rect rx="4" y="1005.36" x="1" height="46" width="46" fill="#1890d0"/></g></clipPath><clipPath id="clipPath-169108148"><g transform="translate(0,-1004.3622)"><rect rx="4" y="1005.36" x="1" height="46" width="46" fill="#1890d0"/></g></clipPath></defs><g><path d="m 1 43 l 0 0.25 c 0 2.216 1.784 4 4 4 l 38 0 c 2.216 0 4 -1.784 4 -4 l 0 -0.25 c 0 2.216 -1.784 4 -4 4 l -38 0 c -2.216 0 -4 -1.784 -4 -4 z m 0 0.5 l 0 0.5 c 0 2.216 1.784 4 4 4 l 38 0 c 2.216 0 4 -1.784 4 -4 l 0 -0.5 c 0 2.216 -1.784 4 -4 4 l -38 0 c -2.216 0 -4 -1.784 -4 -4 z" opacity="0.02"/><path d="m 1 43.25 l 0 0.25 c 0 2.216 1.784 4 4 4 l 38 0 c 2.216 0 4 -1.784 4 -4 l 0 -0.25 c 0 2.216 -1.784 4 -4 4 l -38 0 c -2.216 0 -4 -1.784 -4 -4 z" opacity="0.05"/><path d="m 1 43 l 0 0.25 c 0 2.216 1.784 4 4 4 l 38 0 c 2.216 0 4 -1.784 4 -4 l 0 -0.25 c 0 2.216 -1.784 4 -4 4 l -38 0 c -2.216 0 -4 -1.784 -4 -4 z" opacity="0.1"/></g><g><rect width="46" height="46" x="-47" y="1" rx="4" transform="matrix(0,-1,1,0,0,0)" fill="url(#linearGradient3764)" fill-opacity="1"/></g><g><g clip-path="url(#clipPath-155477723)"><g opacity="0.1"><!-- color: #b87d51 --><g><path d="m 11.965 20 c -0.57 0.027 -0.965 0.168 -0.965 0.816 l 0 13.625 c 0 0.863 0.699 1.555 1.574 1.555 l 22.824 0 c 0.879 0 1.602 -0.691 1.602 -1.555 l 0 -13.625 c 0 -0.863 -0.723 -0.816 -1.602 -0.816 l -22.824 0 c -0.219 0 -0.422 -0.012 -0.609 0 m 0 0" fill="#000"/><path d="m 15 13.402 l -4 4.598 l 12 0 l 0 -7 l -5.508 0 c -0.813 0 -2.492 2.402 -2.492 2.402 m 10 -2.402 l 0 7 l 12 0 l -4 -4.598 c 0 0 -1.695 -2.402 -2.508 -2.402 m -5.492 0" fill="#000"/><path d="m 27.06 26.03 c 0.543 0.176 0.066 0.984 0.844 1.379 c 0.891 0.453 1.332 -0.688 1.867 0.125 c 0.535 0.816 -0.738 0.688 -0.699 1.648 c 0.035 0.957 1.293 0.754 0.82 1.602 c -0.473 0.848 -0.996 -0.266 -1.852 0.242 c -0.852 0.508 -0.035 1.445 -1.043 1.477 c -1 0.031 -0.258 -0.953 -1.148 -1.406 c -0.891 -0.453 -1.332 0.691 -1.867 -0.125 c -0.531 -0.816 0.738 -0.688 0.703 -1.648 c -0.035 -0.957 -1.293 -0.754 -0.82 -1.602 c 0.473 -0.848 0.996 0.266 1.848 -0.242 c 0.855 -0.508 0.039 -1.445 1.043 -1.477 c 0.129 -0.004 0.227 0.004 0.305 0.027 m -0.008 2.445 c -0.449 -0.094 -0.891 0.18 -0.988 0.613 c -0.094 0.43 0.191 0.852 0.641 0.945 c 0.449 0.09 0.891 -0.184 0.984 -0.617 c 0.098 -0.43 -0.191 -0.852 -0.637 -0.941 m 0 0" fill="#000"/><path d="m 22.742 22.03 c 0.543 0.176 0.066 0.984 0.848 1.379 c 0.887 0.453 1.328 -0.688 1.863 0.125 c 0.535 0.816 -0.738 0.688 -0.699 1.648 c 0.035 0.957 1.293 0.754 0.82 1.602 c -0.473 0.848 -0.996 -0.266 -1.852 0.242 c -0.852 0.508 -0.035 1.445 -1.043 1.477 c -1 0.031 -0.258 -0.953 -1.148 -1.406 c -0.887 -0.453 -1.332 0.691 -1.863 -0.125 c -0.535 -0.816 0.734 -0.688 0.699 -1.648 c -0.035 -0.957 -1.293 -0.754 -0.82 -1.602 c 0.473 -0.848 0.996 0.266 1.848 -0.242 c 0.855 -0.508 0.039 -1.445 1.047 -1.477 c 0.125 -0.004 0.223 0.004 0.301 0.027 m -0.008 2.445 c -0.449 -0.094 -0.891 0.18 -0.988 0.613 c -0.094 0.43 0.191 0.852 0.641 0.945 c 0.449 0.09 0.891 -0.184 0.984 -0.617 c 0.098 -0.43 -0.191 -0.852 -0.637 -0.941 m 0 0" fill="#000"/><path d="m 21.305 27.527 c 0.543 0.176 0.066 0.984 0.844 1.379 c 0.891 0.453 1.332 -0.688 1.867 0.125 c 0.531 0.816 -0.738 0.688 -0.703 1.648 c 0.035 0.957 1.293 0.754 0.82 1.602 c -0.473 0.848 -0.996 -0.266 -1.848 0.242 c -0.855 0.508 -0.039 1.445 -1.043 1.477 c -1.01 0.031 -0.262 -0.953 -1.148 -1.406 c -0.891 -0.453 -1.332 0.691 -1.867 -0.125 c -0.535 -0.816 0.738 -0.688 0.699 -1.648 c -0.035 -0.957 -1.293 -0.754 -0.82 -1.602 c 0.473 -0.848 0.996 0.266 1.852 -0.242 c 0.852 -0.508 0.035 -1.445 1.043 -1.477 c 0.125 -0.004 0.227 0.004 0.305 0.027 m -0.012 2.445 c -0.449 -0.094 -0.891 0.18 -0.984 0.613 c -0.098 0.43 0.191 0.852 0.637 0.945 c 0.449 0.09 0.891 -0.184 0.988 -0.617 c 0.094 -0.43 -0.191 -0.852 -0.641 -0.941 m 0 0" fill="#000"/></g></g></g></g><g><g clip-path="url(#clipPath-169108148)"><g transform="translate(0,-1)"><!-- color: #b87d51 --><g><path d="m 11.965 20 c -0.57 0.027 -0.965 0.168 -0.965 0.816 l 0 13.625 c 0 0.863 0.699 1.555 1.574 1.555 l 22.824 0 c 0.879 0 1.602 -0.691 1.602 -1.555 l 0 -13.625 c 0 -0.863 -0.723 -0.816 -1.602 -0.816 l -22.824 0 c -0.219 0 -0.422 -0.012 -0.609 0 m 0 0" fill="#f9f9f9"/><path d="m 15 13.402 l -4 4.598 l 12 0 l 0 -7 l -5.508 0 c -0.813 0 -2.492 2.402 -2.492 2.402 m 10 -2.402 l 0 7 l 12 0 l -4 -4.598 c 0 0 -1.695 -2.402 -2.508 -2.402 m -5.492 0" fill="#f9f9f9"/><path d="m 27.06 26.03 c 0.543 0.176 0.066 0.984 0.844 1.379 c 0.891 0.453 1.332 -0.688 1.867 0.125 c 0.535 0.816 -0.738 0.688 -0.699 1.648 c 0.035 0.957 1.293 0.754 0.82 1.602 c -0.473 0.848 -0.996 -0.266 -1.852 0.242 c -0.852 0.508 -0.035 1.445 -1.043 1.477 c -1 0.031 -0.258 -0.953 -1.148 -1.406 c -0.891 -0.453 -1.332 0.691 -1.867 -0.125 c -0.531 -0.816 0.738 -0.688 0.703 -1.648 c -0.035 -0.957 -1.293 -0.754 -0.82 -1.602 c 0.473 -0.848 0.996 0.266 1.848 -0.242 c 0.855 -0.508 0.039 -1.445 1.043 -1.477 c 0.129 -0.004 0.227 0.004 0.305 0.027 m -0.008 2.445 c -0.449 -0.094 -0.891 0.18 -0.988 0.613 c -0.094 0.43 0.191 0.852 0.641 0.945 c 0.449 0.09 0.891 -0.184 0.984 -0.617 c 0.098 -0.43 -0.191 -0.852 -0.637 -0.941 m 0 0" fill="#e3b392"/><path d="m 22.742 22.03 c 0.543 0.176 0.066 0.984 0.848 1.379 c 0.887 0.453 1.328 -0.688 1.863 0.125 c 0.535 0.816 -0.738 0.688 -0.699 1.648 c 0.035 0.957 1.293 0.754 0.82 1.602 c -0.473 0.848 -0.996 -0.266 -1.852 0.242 c -0.852 0.508 -0.035 1.445 -1.043 1.477 c -1 0.031 -0.258 -0.953 -1.148 -1.406 c -0.887 -0.453 -1.332 0.691 -1.863 -0.125 c -0.535 -0.816 0.734 -0.688 0.699 -1.648 c -0.035 -0.957 -1.293 -0.754 -0.82 -1.602 c 0.473 -0.848 0.996 0.266 1.848 -0.242 c 0.855 -0.508 0.039 -1.445 1.047 -1.477 c 0.125 -0.004 0.223 0.004 0.301 0.027 m -0.008 2.445 c -0.449 -0.094 -0.891 0.18 -0.988 0.613 c -0.094 0.43 0.191 0.852 0.641 0.945 c 0.449 0.09 0.891 -0.184 0.984 -0.617 c 0.098 -0.43 -0.191 -0.852 -0.637 -0.941 m 0 0" fill="#e3b392"/><path d="m 21.305 27.527 c 0.543 0.176 0.066 0.984 0.844 1.379 c 0.891 0.453 1.332 -0.688 1.867 0.125 c 0.531 0.816 -0.738 0.688 -0.703 1.648 c 0.035 0.957 1.293 0.754 0.82 1.602 c -0.473 0.848 -0.996 -0.266 -1.848 0.242 c -0.855 0.508 -0.039 1.445 -1.043 1.477 c -1.01 0.031 -0.262 -0.953 -1.148 -1.406 c -0.891 -0.453 -1.332 0.691 -1.867 -0.125 c -0.535 -0.816 0.738 -0.688 0.699 -1.648 c -0.035 -0.957 -1.293 -0.754 -0.82 -1.602 c 0.473 -0.848 0.996 0.266 1.852 -0.242 c 0.852 -0.508 0.035 -1.445 1.043 -1.477 c 0.125 -0.004 0.227 0.004 0.305 0.027 m -0.012 2.445 c -0.449 -0.094 -0.891 0.18 -0.984 0.613 c -0.098 0.43 0.191 0.852 0.637 0.945 c 0.449 0.09 0.891 -0.184 0.988 -0.617 c 0.094 -0.43 -0.191 -0.852 -0.641 -0.941 m 0 0" fill="#e3b392"/></g></g></g></g><g><g transform="translate(0,-1004.3622)"><path d="m 1 1043.36 0 4 c 0 2.216 1.784 4 4 4 l 38 0 c 2.216 0 4 -1.784 4 -4 l 0 -4 c 0 2.216 -1.784 4 -4 4 l -38 0 c -2.216 0 -4 -1.784 -4 -4 z" opacity="0.1"/></g></g></svg>
